X:232
T: Kin[n]egad Slashers
N: O'Farrell's Pocket Companion v.3 (Sky ed. p.113)
N: "Irish"
M: 6/8
R: jig
L: 1/8
Q: 320
K: D
A/B//c//| d>ed dAF| A>BA ABc| ded dAF| Eee e2f|
ded dAF| A>BA A2g| fef dBA| Bdd d2 :|
A |dfa afd| cde ecA| dfa afd| faa a2A|
dfa afd| cde e2g| fef dBA | Bdd d2 :|
